packages/kaspersky-hexa-ui-icons/src/iconsSVGs/16/VolumeK8S.svg

<svg width="16" height="16" viewBox="0 0 16 16" fill="none" xmlns="http://www.w3.org/2000/svg">
<path fill-rule="evenodd" clip-rule="evenodd" d="M1.3501 5.0001C1.3501 4.43943 1.69158 4.00875 2.06927 3.71109C2.4543 3.40765 2.97116 3.16282 3.55191 2.96924C4.72019 2.57981 6.29282 2.3501 8.0001 2.3501C9.70737 2.3501 11.28 2.57981 12.4483 2.96924C13.029 3.16282 13.5459 3.40765 13.9309 3.71109C14.3086 4.00875 14.6501 4.43943 14.6501 5.0001V11.0001C14.6501 11.5608 14.3086 11.9914 13.9309 12.2891C13.5459 12.5925 13.029 12.8374 12.4483 13.031C11.28 13.4204 9.70737 13.6501 8.0001 13.6501C6.29282 13.6501 4.72019 13.4204 3.55191 13.031C2.97116 12.8374 2.4543 12.5925 2.06927 12.2891C1.69158 11.9914 1.3501 11.5608 1.3501 11.0001V5.0001ZM2.6501 5.00006C2.65006 4.99912 2.64935 4.98041 2.67594 4.93709C2.70553 4.88889 2.76474 4.81818 2.87394 4.73213C3.09615 4.55701 3.45796 4.37088 3.96301 4.20253C4.96629 3.8681 6.39367 3.6501 8.0001 3.6501C9.60653 3.6501 11.0339 3.8681 12.0372 4.20253C12.5422 4.37088 12.904 4.55701 13.1263 4.73213C13.2355 4.81818 13.2947 4.88889 13.3243 4.93709C13.3508 4.98041 13.3501 4.99912 13.3501 5.00006L13.3501 5.0011C13.35 5.0055 13.3479 5.02456 13.3243 5.06311C13.2947 5.1113 13.2355 5.18201 13.1263 5.26807C12.904 5.44319 12.5422 5.62932 12.0372 5.79767C11.0339 6.1321 9.60653 6.3501 8.0001 6.3501C6.39367 6.3501 4.96629 6.1321 3.96301 5.79767C3.45796 5.62932 3.09615 5.44319 2.87394 5.26807C2.76474 5.18201 2.70553 5.1113 2.67594 5.06311C2.65229 5.02457 2.65024 5.00551 2.6501 5.0011L2.6501 5.00006ZM13.3501 6.65717C13.0773 6.79862 12.7728 6.92279 12.4483 7.03096C11.28 7.42038 9.70737 7.6501 8.0001 7.6501C6.29282 7.6501 4.72019 7.42038 3.55191 7.03096C3.22741 6.92279 2.92285 6.79862 2.6501 6.65717V11.0001C2.65006 11.001 2.64935 11.0198 2.67594 11.0631C2.70553 11.1113 2.76474 11.182 2.87394 11.2681C3.09615 11.4432 3.45796 11.6293 3.96301 11.7977C4.96629 12.1321 6.39366 12.3501 8.0001 12.3501C9.60653 12.3501 11.0339 12.1321 12.0372 11.7977C12.5422 11.6293 12.904 11.4432 13.1263 11.2681C13.2355 11.182 13.2947 11.1113 13.3243 11.0631C13.3508 11.0198 13.3501 11.0011 13.3501 11.0001L13.3501 6.65717Z" fill="black"/>
</svg>

<svg xmlns="http://www.w3.org/2000/svg" width="16" height="16" fill="none" viewBox="0 0 16 16"><path fill="#000" fill-rule="evenodd" d="M1.35 5c0-.5607.3414-.9914.7192-1.289.385-.3035.9018-.5483 1.4826-.7419C4.72 2.5797 6.2927 2.35 8 2.35s3.2799.2297 4.4482.6191c.5807.1936 1.0976.4384 1.4826.7419.3777.2976.7192.7283.7192 1.289v6c0 .5606-.3415.9913-.7192 1.289-.385.3034-.9019.5483-1.4826.7418-1.1683.3895-2.741.6192-4.4482.6192-1.7073 0-3.28-.2297-4.4482-.6192-.5808-.1935-1.0976-.4384-1.4826-.7418-.3778-.2977-.7192-.7284-.7192-1.289zm1.3 0c0-.001-.0008-.0197.0258-.063.0296-.0482.0888-.119.198-.205.2222-.1751.584-.3613 1.089-.5296C4.9663 3.868 6.3936 3.65 8 3.65s3.0338.218 4.0371.5524c.505.1684.8668.3545 1.089.5296.1092.086.1684.1568.198.205.0266.0433.0259.062.0259.063v.001c-.0002.0044-.0022.0234-.0259.062-.0296.0482-.0888.1189-.198.205-.2222.175-.584.3612-1.089.5296C11.0338 6.132 9.6064 6.35 8 6.35c-1.6065 0-3.0338-.218-4.0371-.5524-.505-.1684-.8669-.3545-1.089-.5297-.1093-.086-.1685-.1567-.198-.205-.0237-.0385-.0258-.0575-.026-.062zm10.7 1.657c-.2728.1415-.5773.2657-.9018.3738C11.2799 7.4203 9.7072 7.65 8 7.65c-1.7073 0-3.28-.2297-4.4482-.6192-.3245-.1081-.629-.2323-.9018-.3738V11c0 .0009-.0008.0197.0258.063.0296.0482.0888.1189.198.2049.2222.1752.584.3613 1.089.5296C4.9663 12.132 6.3936 12.35 8 12.35s3.0338-.218 4.0371-.5525c.505-.1683.8668-.3544 1.089-.5296.1092-.086.1684-.1567.198-.2049.0266-.0433.0259-.062.0259-.063z"/></svg>
